public/img/events/warriors-festival.svg

<svg width="200" height="200" viewBox="0 0 200 200" fill="none" xmlns="http://www.w3.org/2000/svg">
<g clip-path="url(#clip0_501_29919)">
<path d="M88.1562 0.629213C85.0314 3.70584 81.9024 6.78246 78.7776 9.85909C77.3243 11.2923 75.8922 12.7083 74.8364 14.4762C73.8105 16.1968 72.9385 18.0162 71.9639 19.7712C69.9505 23.3971 67.8046 26.95 65.5562 30.4343C64.4362 32.1721 63.2863 33.8885 62.1194 35.592C61.5252 36.4588 60.9225 37.3213 60.3155 38.1838C59.7769 38.9433 59.2169 39.6942 58.7894 40.5223C57.7934 42.4533 57.9003 44.4786 58.2423 46.564C58.5543 48.4778 59.1015 50.3487 59.7897 52.1594C61.2302 55.9398 63.235 59.4584 65.2869 62.9255C69.5829 70.1901 74.1097 77.3131 78.7563 84.3546C83.4626 91.4819 88.2844 98.5276 93.1233 105.565C93.7132 106.423 94.3031 107.281 94.8973 108.139C95.1709 108.534 95.624 108.766 96.1027 108.633C96.5259 108.517 96.932 108.062 96.8893 107.599C96.1498 99.8021 95.8762 91.9667 96.0771 84.1357C96.1113 82.754 93.974 82.754 93.9398 84.1357C93.7389 91.9667 94.0124 99.8021 94.752 107.599C95.4145 107.419 96.0814 107.238 96.7439 107.058C91.9991 100.163 87.2585 93.2712 82.6163 86.307C77.9911 79.3685 73.4643 72.3613 69.1511 65.2212C67.0694 61.7798 64.9534 58.3299 63.2051 54.704C62.3673 52.9661 61.632 51.1768 61.0763 49.3231C60.542 47.5466 60.0804 45.6372 60.106 43.7706C60.1317 41.8654 61.3499 40.4151 62.3972 38.9304C63.5685 37.2655 64.7183 35.5877 65.8468 33.8928C68.1081 30.4901 70.2754 27.023 72.3229 23.4872C73.3317 21.7408 74.3106 19.9772 75.2596 18.2007C76.1787 16.4715 77.0379 14.7508 78.3801 13.3047C79.795 11.7814 81.3296 10.3611 82.8129 8.9022C84.3389 7.40037 85.865 5.89852 87.3868 4.40098C88.1476 3.65006 88.9128 2.89914 89.6737 2.14822C90.6483 1.17846 89.1394 -0.340545 88.1562 0.629213Z" fill="black"/>
<path d="M95.5044 82.8356C88.5581 78.9222 83.1892 72.2154 81.4879 64.3415C81.0305 62.2218 80.8766 60.0548 81.0048 57.8879C81.0861 56.5105 78.9487 56.5148 78.8675 57.8879C78.3631 66.3411 82.2573 74.6184 88.3914 80.291C90.2252 81.986 92.2557 83.4621 94.4272 84.6893C95.6241 85.363 96.7013 83.5092 95.5044 82.8356Z" fill="black"/>
<path d="M88.413 1.83926C90.3708 3.85602 92.3286 5.87277 94.2863 7.89382C94.4445 7.29737 94.6027 6.69663 94.7566 6.10019C87.7632 8.6576 82.7534 14.3946 79.5688 20.9899C77.8204 24.6114 76.444 28.499 75.6318 32.4424C74.6914 37.0209 74.6572 41.7495 74.6914 46.4053C74.7213 50.413 75.2514 54.8584 78.56 57.5575C79.0088 57.9222 79.6329 57.9951 80.0732 57.5575C80.4493 57.1799 80.522 56.4075 80.0732 56.0385C77.4357 53.8844 76.927 50.4774 76.8458 47.2506C76.7347 42.9725 76.7475 38.5614 77.4485 34.3305C78.0812 30.5115 79.308 26.7226 80.8896 23.1954C82.2618 20.1445 83.9674 17.2009 86.1603 14.6693C88.6524 11.7943 91.7387 9.48147 95.3208 8.16844C96.0646 7.89382 96.3852 6.98842 95.791 6.37481C93.8332 4.35805 91.8754 2.34131 89.9177 0.320261C88.9601 -0.666662 87.4512 0.852338 88.413 1.83926Z" fill="black"/>
<path d="M76.4868 42.3288C82.3302 43.1055 88.2164 43.5732 94.1068 43.7234C95.5816 43.762 97.0563 43.7792 98.5311 43.7792C99.869 43.7792 101.203 43.7749 102.524 43.5646C104.999 43.1741 107.123 41.6937 107.893 39.2307C108.76 36.4588 107.401 33.6353 105.46 31.6915C105.208 32.3008 104.956 32.9144 104.704 33.5237C108.867 33.2448 113.039 33.1976 117.207 33.3821C116.955 32.7728 116.703 32.1592 116.45 31.5499C115.031 32.9745 113.933 34.6909 113.287 36.6004C113.005 37.4371 112.778 38.3125 112.924 39.1964C113.069 40.0675 113.672 40.8699 114.578 41.0201C115.147 41.1145 115.728 40.8699 115.895 40.2691C116.036 39.7542 115.719 39.0462 115.147 38.9475C114.847 38.896 115.074 38.9904 115.087 38.9904C115.125 39.072 115.117 39.0548 115.048 38.9389C115.07 38.999 115.07 38.9947 115.044 38.9218C114.988 38.7802 114.984 38.5785 115.001 38.424C115.061 37.8619 115.339 37.0981 115.583 36.5188C116.138 35.2187 116.963 34.0601 117.955 33.0646C118.63 32.3866 118.109 31.2753 117.198 31.2324C113.031 31.0436 108.859 31.0908 104.695 31.374C103.797 31.434 103.25 32.5154 103.938 33.2062C105.332 34.6008 106.443 36.566 105.845 38.5871C105.242 40.6253 103.293 41.402 101.344 41.5607C98.8089 41.771 96.2142 41.638 93.6751 41.5693C90.9735 41.4921 88.2719 41.3505 85.5746 41.1445C82.5311 40.9085 79.4961 40.5867 76.4739 40.1876C75.9011 40.1104 75.4053 40.7369 75.4053 41.2604C75.4181 41.8997 75.914 42.2516 76.4868 42.3288Z" fill="black"/>
<path d="M81.047 57.9222C86.121 55.6995 91.6011 54.3478 97.1154 53.8973C98.5474 53.7814 99.988 53.7042 101.424 53.7257C102.476 53.7385 103.468 53.9059 103.985 54.9228C104.989 56.9053 102.946 61.252 106.246 61.561C107.888 61.7154 109.589 61.6253 111.239 61.6511C113.004 61.6811 114.765 61.7069 116.531 61.7369C117.104 61.7455 117.604 61.2391 117.599 60.6642C117.582 58.7075 117.565 56.7508 117.544 54.7941C117.531 53.4124 115.394 53.4124 115.407 54.7941C115.424 56.7508 115.441 58.7075 115.462 60.6642C115.817 60.308 116.176 59.9476 116.531 59.5914C113.427 59.5399 110.324 59.4884 107.221 59.4369C106.939 59.4326 106.648 59.4412 106.366 59.4241C106.229 59.4155 106.421 59.4713 106.426 59.4884C106.421 59.4627 106.4 59.1752 106.4 59.1494C106.379 58.4071 106.46 57.6648 106.468 56.9224C106.485 55.6652 106.272 54.3693 105.515 53.3352C104.652 52.1637 103.391 51.6832 101.976 51.5888C100.565 51.4944 99.1159 51.5973 97.7053 51.696C94.8328 51.8977 91.973 52.3225 89.1689 52.979C86.0099 53.7171 82.9407 54.7598 79.9698 56.0599C79.4398 56.2917 79.3201 57.0683 79.5851 57.5275C79.9014 58.0896 80.5127 58.1582 81.047 57.9222Z" fill="black"/>
<path d="M114.676 40.9257C118.014 40.8527 121.442 40.7755 124.653 39.7714C127.483 38.8875 130.205 37.1711 131.676 34.5107C132.471 33.0689 132.766 31.4898 132.497 29.8593C132.407 30.2068 132.313 30.5544 132.223 30.902C133.014 30.2841 134.66 30.902 135.237 31.7559C136.293 33.3006 135.609 35.5362 135.232 37.1968C134.245 41.5779 132.898 45.8775 132.364 50.3529C131.873 54.4465 132.368 58.4543 133.634 62.3633C134.809 65.9892 136.455 69.4349 137.9 72.9535C139.473 76.7939 140.854 80.8102 140.858 85.0111C141.119 84.6678 141.379 84.3202 141.644 83.977C141.324 84.11 141.756 84.0413 141.721 84.0756C141.691 84.1057 141.52 83.904 141.516 83.8954C141.367 83.7066 141.294 83.4835 141.23 83.2604C141.059 82.6425 140.888 82.0246 140.7 81.4109C140.315 80.1451 139.883 78.8965 139.404 77.6649C138.447 75.1805 137.318 72.7647 135.998 70.4518C133.339 65.809 129.889 61.5652 125.687 58.2483C123.208 56.2916 120.523 54.6525 117.629 53.3952C117.099 53.1635 116.484 53.2365 116.168 53.7814C115.903 54.2363 116.018 55.0172 116.552 55.2489C121.639 57.4588 126.072 60.8529 129.663 65.0795C133.108 69.1388 135.741 73.9061 137.596 78.8922C138.109 80.2738 138.567 81.6727 138.968 83.0887C139.195 83.8825 139.383 84.642 139.913 85.2986C140.456 85.9722 141.367 86.4013 142.213 86.0495C142.657 85.865 142.999 85.5303 142.999 85.0154C142.999 76.8497 138.391 69.791 135.865 62.2818C135.245 60.441 134.724 58.5401 134.472 56.6092C134.189 54.4336 134.258 52.2152 134.548 50.044C135.168 45.3883 136.707 40.9214 137.613 36.3215C138.045 34.1288 138.203 31.4512 136.361 29.8207C134.784 28.4218 132.437 28.0528 130.718 29.3873C130.406 29.6318 130.385 30.0824 130.445 30.43C130.941 33.4336 128.124 35.9439 125.7 37.0938C122.314 38.6944 118.343 38.6987 114.684 38.7802C113.299 38.8102 113.295 40.9557 114.676 40.9257Z" fill="black"/>
<path d="M113.791 77.4032C113.129 84.9338 112.659 92.4817 112.385 100.034C112.111 107.594 112.035 115.164 112.15 122.729C112.265 130.289 112.577 137.85 113.082 145.398C113.586 152.971 114.292 160.528 115.189 168.063C116.083 175.563 117.164 183.038 118.447 190.479C118.605 191.397 118.767 192.311 118.93 193.229C119.032 193.8 119.725 194.122 120.246 193.98C120.845 193.813 121.097 193.234 120.994 192.659C119.682 185.308 118.558 177.919 117.63 170.509C116.694 163.017 115.954 155.503 115.407 147.972C114.86 140.468 114.51 132.95 114.347 125.423C114.185 117.897 114.215 110.366 114.441 102.84C114.668 95.2836 115.087 87.7315 115.702 80.1966C115.779 79.2655 115.856 78.3343 115.942 77.4032C115.993 76.8239 115.416 76.3304 114.873 76.3304C114.24 76.3304 113.843 76.8239 113.791 77.4032Z" fill="black"/>
<path d="M119.523 194.444C119.784 194.667 119.545 194.452 119.549 194.435C119.541 194.495 119.558 194.585 119.515 194.637C119.348 194.864 119.374 194.868 119.019 194.838C118.181 194.774 117.335 194.401 116.497 194.276C114.676 194.006 112.864 194.07 111.051 194.362C107.345 194.959 103.861 196.516 100.454 198.031C100.989 198.34 101.527 198.649 102.062 198.958C101.313 189.608 101.386 180.198 102.301 170.86C102.754 166.239 103.511 161.656 103.985 157.035C104.464 152.358 104.417 147.754 103.925 143.081C103.451 138.588 102.963 134.108 102.681 129.599C102.404 125.076 102.267 120.545 102.275 116.013C102.292 107.002 102.882 97.9956 104.036 89.0618C105.173 80.2438 106.892 71.4988 109.162 62.904C109.448 61.8141 109.747 60.7285 110.051 59.6429C109.709 59.9046 109.363 60.1664 109.021 60.4324C112.453 60.7628 114.83 64.1956 115.463 67.3409C116.146 70.735 114.885 74.8458 112.081 76.9698C110.671 78.0383 108.939 78.2399 107.285 78.7034C105.511 79.1968 103.874 80.0979 102.942 81.7543C101.13 84.9682 102.301 89.375 104.374 92.177C105.601 93.8333 107.106 95.2193 108.529 96.6954C109.226 97.4163 109.91 98.1586 110.483 98.9825C111.085 99.8407 111.735 100.862 111.675 101.952C111.62 102.9 111.017 103.724 110.418 104.415C109.645 105.307 108.837 106.17 108.042 107.045C106.447 108.805 104.806 110.534 103.258 112.34C101.908 113.919 100.98 115.734 101.245 117.871C101.497 119.927 102.669 121.815 104.19 123.184C105.627 124.479 107.396 125.308 108.927 126.47C109.645 127.015 110.465 127.719 110.863 128.547C111.308 129.474 110.282 130.431 109.782 131.135C108.362 133.139 106.939 135.147 105.52 137.151C104.31 138.863 102.66 140.661 102.527 142.862C102.408 144.874 103.741 146.501 105.225 147.672C107.11 149.161 109.076 150.556 111 151.993C111.992 152.731 112.983 153.473 113.975 154.212C113.902 153.649 113.83 153.087 113.757 152.525C110.081 157.108 106.135 161.463 101.925 165.557C100.933 166.518 102.446 168.037 103.438 167.076C107.648 162.982 111.594 158.627 115.27 154.044C115.736 153.465 115.646 152.804 115.052 152.358C113.03 150.852 111.008 149.346 108.991 147.839C108.11 147.183 107.191 146.556 106.353 145.848C105.704 145.299 105.032 144.647 104.767 143.81C104.481 142.896 104.806 142.025 105.276 141.236C105.853 140.27 106.554 139.373 107.2 138.455C108.644 136.413 110.094 134.37 111.538 132.328C112.133 131.487 112.885 130.628 113.073 129.581C113.282 128.414 112.744 127.397 112.034 126.513C110.795 124.977 109.076 123.982 107.439 122.93C105.823 121.892 104.306 120.618 103.626 118.747C102.891 116.717 103.686 115.056 105.041 113.533C106.678 111.692 108.35 109.877 110.004 108.054C111.38 106.535 113.274 104.908 113.693 102.797C114.154 100.501 112.846 98.4676 111.461 96.764C110.158 95.1592 108.585 93.8076 107.2 92.2757C105.934 90.8768 104.96 89.3235 104.481 87.4784C104.075 85.9122 103.994 84.0971 104.87 82.6725C105.81 81.1406 107.653 80.7974 109.269 80.4112C111.06 79.9821 112.675 79.3513 114.052 78.0855C119.652 72.9277 118.839 62.0544 111.479 58.9006C110.679 58.5573 109.876 58.3685 109.008 58.2827C108.546 58.2397 108.097 58.6474 107.978 59.0722C105.545 67.7099 103.682 76.5064 102.391 85.3887C101.091 94.3096 100.343 103.303 100.168 112.319C99.9926 121.377 100.394 130.448 101.373 139.455C101.878 144.093 102.391 148.693 102.13 153.366C101.869 158.043 101.104 162.673 100.54 167.32C99.4113 176.628 99.1206 186.038 99.6635 195.396C99.7319 196.585 99.8173 197.769 99.9114 198.953C99.9798 199.816 100.753 200.219 101.519 199.88C105.396 198.155 109.512 196.31 113.825 196.233C114.821 196.216 115.813 196.289 116.788 196.495C117.839 196.718 118.908 197.19 119.989 196.864C121.524 196.4 122.345 194.049 121.024 192.916C119.994 192.036 118.476 193.547 119.523 194.444Z" fill="black"/>
<path d="M113.133 173.341C111.735 173.075 110.303 172.869 108.897 173.178C107.431 173.499 106.217 174.508 105.58 175.864C104.874 177.378 104.716 179.056 104.524 180.7C104.314 182.51 104.075 184.364 104.054 186.188C104.045 187.067 104.336 187.84 105.007 188.415C105.631 188.947 106.315 189.363 107.067 189.681C108.516 190.286 110.183 190.419 111.692 189.964C114.599 189.084 116.578 185.986 115.625 182.97C115.082 181.253 113.471 179.983 111.624 180.361C109.803 180.734 108.79 182.669 108.79 184.407C108.79 185.789 110.927 185.789 110.927 184.407C110.927 183.635 111.299 182.523 112.201 182.438C113.06 182.356 113.543 183.24 113.672 183.974C114.022 185.96 112.556 187.608 110.692 188.007C109.675 188.226 108.551 188.054 107.619 187.6C107.187 187.389 106.67 187.119 106.345 186.754C106.011 186.381 106.208 185.686 106.242 185.222C106.336 183.819 106.465 182.416 106.623 181.017C106.764 179.777 106.879 178.503 107.281 177.318C107.632 176.284 108.311 175.52 109.388 175.267C110.419 175.023 111.539 175.22 112.56 175.417C113.124 175.525 113.714 175.259 113.877 174.667C114.022 174.139 113.702 173.452 113.133 173.341Z" fill="black"/>
</g>
<defs>
<clipPath id="clip0_501_29919">
<rect width="200" height="200" fill="white"/>
</clipPath>
</defs>
</svg>

<svg xmlns="http://www.w3.org/2000/svg" width="200" height="200" fill="none"><g fill="#000" clip-path="url(#a)"><path d="M88.156.63c-3.125 3.076-6.254 6.152-9.378 9.23-1.454 1.432-2.886 2.848-3.942 4.616-1.025 1.72-1.897 3.54-2.872 5.295a188 188 0 0 1-6.408 10.663 221 221 0 0 1-3.437 5.158q-.892 1.3-1.803 2.592c-.54.76-1.1 1.51-1.527 2.338-.996 1.931-.889 3.957-.547 6.042.312 1.914.86 3.785 1.548 5.595 1.44 3.78 3.445 7.3 5.497 10.767 4.296 7.264 8.823 14.387 13.47 21.429 4.706 7.127 9.527 14.173 14.366 21.21q.884 1.287 1.774 2.574c.274.395.727.627 1.206.494.423-.116.829-.571.786-1.034a195 195 0 0 1-.812-23.463c.034-1.382-2.103-1.382-2.137 0a195 195 0 0 0 .812 23.463l1.992-.541c-4.745-6.895-9.486-13.787-14.128-20.751-4.625-6.939-9.152-13.946-13.465-21.086-2.082-3.441-4.198-6.891-5.946-10.517-.838-1.738-1.573-3.527-2.129-5.38-.534-1.777-.996-3.687-.97-5.553.026-1.906 1.244-3.356 2.291-4.84a238 238 0 0 0 3.45-5.038 199 199 0 0 0 6.476-10.406 182 182 0 0 0 2.937-5.286c.919-1.73 1.778-3.45 3.12-4.896 1.415-1.524 2.95-2.944 4.433-4.403l4.574-4.501 2.287-2.253c.974-.97-.535-2.489-1.518-1.519"/><path d="M95.504 82.836c-6.946-3.914-12.315-10.62-14.016-18.495a23.9 23.9 0 0 1-.483-6.453c.081-1.377-2.056-1.373-2.137 0-.505 8.453 3.39 16.73 9.523 22.403a32.3 32.3 0 0 0 6.036 4.398c1.197.674 2.274-1.18 1.077-1.853"/><path d="M88.413 1.84q2.937 3.023 5.873 6.054.24-.897.47-1.794c-6.993 2.558-12.003 8.295-15.187 14.89-1.749 3.621-3.125 7.509-3.937 11.452-.94 4.579-.975 9.307-.94 13.963.03 4.008.56 8.453 3.868 11.152.449.365 1.073.438 1.513 0 .376-.377.449-1.15 0-1.519-2.637-2.154-3.146-5.56-3.227-8.787-.111-4.279-.099-8.69.602-12.92.633-3.82 1.86-7.608 3.442-11.136 1.372-3.05 3.077-5.994 5.27-8.526 2.492-2.875 5.579-5.188 9.16-6.5.745-.275 1.065-1.18.471-1.794Q92.854 3.35 89.918.32c-.958-.987-2.467.532-1.505 1.52"/><path d="M76.487 42.329a166 166 0 0 0 22.044 1.45c1.338 0 2.672-.004 3.993-.214 2.475-.39 4.599-1.871 5.369-4.334.867-2.772-.492-5.596-2.433-7.54l-.756 1.833c4.163-.28 8.335-.326 12.503-.142q-.378-.917-.757-1.832c-1.419 1.424-2.517 3.14-3.163 5.05-.282.837-.509 1.712-.363 2.596.145.872.748 1.674 1.654 1.824.569.094 1.15-.15 1.317-.75.141-.516-.176-1.224-.748-1.323-.3-.051-.073.043-.06.043.038.082.03.065-.039-.051q.034.091-.004-.017c-.056-.142-.06-.343-.043-.498.06-.562.338-1.326.582-1.905.555-1.3 1.38-2.459 2.372-3.454.675-.678.154-1.79-.757-1.833a111 111 0 0 0-12.503.142c-.898.06-1.445 1.141-.757 1.832 1.394 1.395 2.505 3.36 1.907 5.381-.603 2.038-2.552 2.815-4.501 2.974-2.535.21-5.13.077-7.669.008a170 170 0 0 1-8.1-.425 170 170 0 0 1-9.101-.956c-.573-.078-1.069.549-1.069 1.072.013.64.509.992 1.082 1.069M81.047 57.922c5.074-2.222 10.554-3.574 16.068-4.025 1.432-.116 2.873-.193 4.309-.171 1.052.013 2.044.18 2.561 1.197 1.004 1.982-1.039 6.329 2.261 6.638 1.642.154 3.343.064 4.993.09 1.765.03 3.526.056 5.292.086.573.008 1.073-.498 1.068-1.073q-.024-2.934-.055-5.87c-.013-1.382-2.15-1.382-2.137 0q.025 2.936.055 5.87l1.069-1.073-9.31-.154c-.282-.004-.573.004-.855-.013-.137-.008.055.047.06.064a8 8 0 0 1-.026-.339c-.021-.742.06-1.484.068-2.227.017-1.257-.196-2.553-.953-3.587-.863-1.171-2.124-1.652-3.539-1.746-1.411-.095-2.86.008-4.27.107a54 54 0 0 0-8.537 1.283 53 53 0 0 0-9.2 3.08c-.53.233-.649 1.01-.384 1.469.316.562.928.63 1.462.394"/><path d="M114.676 40.926c3.338-.073 6.766-.15 9.977-1.155 2.83-.883 5.552-2.6 7.023-5.26.795-1.442 1.09-3.021.821-4.652q-.137.521-.274 1.043c.791-.618 2.437 0 3.014.854 1.056 1.545.372 3.78-.005 5.44-.987 4.382-2.334 8.682-2.868 13.157-.491 4.093.004 8.101 1.27 12.01 1.175 3.626 2.821 7.072 4.266 10.59 1.573 3.84 2.954 7.857 2.958 12.058q.39-.516.786-1.034c-.32.133.112.064.077.099-.03.03-.201-.172-.205-.18-.149-.19-.222-.412-.286-.636a71 71 0 0 0-.53-1.85 52 52 0 0 0-1.296-3.745 53 53 0 0 0-3.406-7.213c-2.659-4.643-6.109-8.887-10.311-12.204-2.479-1.956-5.164-3.595-8.058-4.853-.53-.232-1.145-.159-1.461.386-.265.455-.15 1.236.384 1.468 5.087 2.21 9.52 5.604 13.111 9.83 3.445 4.06 6.078 8.827 7.933 13.813q.77 2.072 1.372 4.197c.227.793.415 1.553.945 2.21.543.673 1.454 1.102 2.3.75.444-.184.786-.519.786-1.034 0-8.165-4.608-15.224-7.134-22.733-.62-1.841-1.141-3.742-1.393-5.673-.283-2.175-.214-4.394.076-6.565.62-4.656 2.159-9.123 3.065-13.722.432-2.193.59-4.87-1.252-6.501-1.577-1.4-3.924-1.768-5.643-.434-.312.245-.333.695-.273 1.043.496 3.004-2.321 5.514-4.745 6.664-3.386 1.6-7.357 1.605-11.016 1.686-1.385.03-1.389 2.176-.008 2.146M113.791 77.403a441 441 0 0 0-1.406 22.631 441 441 0 0 0 .697 45.364c.504 7.573 1.21 15.13 2.107 22.665a435 435 0 0 0 3.741 25.166c.102.571.795.893 1.316.751.599-.167.851-.746.748-1.321a431 431 0 0 1-3.364-22.15 437 437 0 0 1-2.223-22.537 442 442 0 0 1-.966-45.132c.227-7.556.646-15.109 1.261-22.643.077-.931.154-1.863.24-2.794.051-.58-.526-1.073-1.069-1.073-.633 0-1.03.494-1.082 1.073"/><path d="M119.523 194.444c.261.223.022.008.026-.009-.008.06.009.15-.034.202-.167.227-.141.231-.496.201-.838-.064-1.684-.437-2.522-.562-1.821-.27-3.633-.206-5.446.086-3.706.597-7.19 2.154-10.597 3.669l1.608.927c-.749-9.35-.676-18.76.239-28.098.453-4.621 1.21-9.204 1.684-13.825.479-4.677.432-9.281-.06-13.954-.474-4.493-.962-8.973-1.244-13.482a213.58 213.58 0 0 1 1.355-40.537 205 205 0 0 1 6.015-29.42c-.342.263-.688.524-1.03.79 3.432.33 5.809 3.764 6.442 6.909.683 3.394-.578 7.505-3.382 9.629-1.41 1.068-3.142 1.27-4.796 1.733-1.774.494-3.411 1.395-4.343 3.051-1.812 3.214-.641 7.621 1.432 10.423 1.227 1.656 2.732 3.042 4.155 4.518.697.721 1.381 1.464 1.954 2.288.602.858 1.252 1.879 1.192 2.969-.055.948-.658 1.772-1.257 2.463-.773.892-1.581 1.755-2.376 2.63-1.595 1.76-3.236 3.489-4.784 5.295-1.35 1.579-2.278 3.394-2.013 5.531.252 2.056 1.424 3.944 2.945 5.313 1.437 1.295 3.206 2.124 4.737 3.286.718.545 1.538 1.249 1.936 2.077.445.927-.581 1.884-1.081 2.588l-4.262 6.016c-1.21 1.712-2.86 3.51-2.993 5.711-.119 2.012 1.214 3.639 2.698 4.81 1.885 1.489 3.851 2.884 5.775 4.321q1.488 1.109 2.975 2.219l-.218-1.687a143 143 0 0 1-11.832 13.032c-.992.961.521 2.48 1.513 1.519a143 143 0 0 0 11.832-13.032c.466-.579.376-1.24-.218-1.686q-3.034-2.259-6.061-4.519c-.881-.656-1.8-1.283-2.638-1.991-.649-.549-1.321-1.201-1.586-2.038-.286-.914.039-1.785.509-2.574.577-.966 1.278-1.863 1.924-2.781 1.444-2.042 2.894-4.085 4.338-6.127.595-.841 1.347-1.7 1.535-2.747.209-1.167-.329-2.184-1.039-3.068-1.239-1.536-2.958-2.531-4.595-3.583-1.616-1.038-3.133-2.312-3.813-4.183-.735-2.03.06-3.691 1.415-5.214 1.637-1.841 3.309-3.656 4.963-5.479 1.376-1.519 3.27-3.146 3.689-5.257.461-2.296-.847-4.33-2.232-6.033-1.303-1.605-2.876-2.956-4.261-4.488-1.266-1.4-2.24-2.953-2.719-4.798-.406-1.566-.487-3.38.389-4.805.94-1.532 2.783-1.876 4.399-2.262 1.791-.429 3.406-1.06 4.783-2.326 5.6-5.157 4.787-16.03-2.573-19.184a8.2 8.2 0 0 0-2.471-.618c-.462-.043-.911.364-1.03.79a207 207 0 0 0-5.587 26.316 216 216 0 0 0-2.223 26.93 213 213 0 0 0 1.205 27.136c.505 4.638 1.018 9.238.757 13.911-.261 4.677-1.026 9.307-1.59 13.954a157.6 157.6 0 0 0-.629 31.633c.069.863.842 1.266 1.608.927 3.877-1.725 7.993-3.57 12.306-3.647a13.2 13.2 0 0 1 2.963.262c1.051.223 2.12.695 3.201.369 1.535-.464 2.356-2.815 1.035-3.948-1.03-.88-2.548.631-1.501 1.528"/><path d="M113.133 173.341c-1.398-.266-2.83-.472-4.236-.163-1.466.321-2.68 1.33-3.317 2.686-.706 1.514-.864 3.192-1.056 4.836-.21 1.81-.449 3.664-.47 5.488-.009.879.282 1.652.953 2.227a7.9 7.9 0 0 0 2.06 1.266c1.449.605 3.116.738 4.625.283 2.907-.88 4.886-3.978 3.933-6.994-.543-1.717-2.154-2.987-4.001-2.609-1.821.373-2.834 2.308-2.834 4.046 0 1.382 2.137 1.382 2.137 0 0-.772.372-1.884 1.274-1.969.859-.082 1.342.802 1.471 1.536.35 1.986-1.116 3.634-2.98 4.033-1.017.219-2.141.047-3.073-.407-.432-.211-.949-.481-1.274-.846-.334-.373-.137-1.068-.103-1.532q.142-2.105.381-4.205c.141-1.24.256-2.514.658-3.699.351-1.034 1.03-1.798 2.107-2.051 1.031-.244 2.151-.047 3.172.15.564.108 1.154-.158 1.317-.75.145-.528-.175-1.215-.744-1.326"/></g><defs><clipPath id="a"><path fill="#fff" d="M0 0h200v200H0z"/></clipPath></defs></svg>
